X: 07121
T: WALLY'S HORNPIPE
C: Bob McQuillen 3 Oct 88
B: Bob's Note Book 7 #21
%R: hornpipe, reel
Z: 2021 John Chambers <jc:trillian.mit.edu>
M: C
L: 1/8
K: G
dc \
| BdBG DGBd | cAFA G2GE | DGBd  egdB | cBAG FDGA |\
| BdBG DGBd | cAFA GEDC | B,DGB cAFG | A2G2 G2 :|
|: Bc \
| dBGD B,DGB | dBeB d2AB | cedc BdcB | AGFE D2BA |\
| GDEF GDEF  | GBde dBed | cAdc BGAG | D2G2 G2 :|
%%begintext align
%% Here's a tune
%% for Walter Godet of Exeter, N.H. Wally's
%% the proprietor of the "Green Garage", and
%% a great fiddler, maker of fiddles, and friend.
%%endtext

%%sep 1 1 500

%%sep 1 1 500

